X: 20962
Q: "With spirit."
M: C
L: 1/8
K: C
c2d>e d2c>B | c2B>A G2z2 |\
c2de {e}d2cB | c2BA G2GG |\
f2e>f d2gg |\
e2eg (fe)dc | B2 Hd4 G>G |\
c2d>e d2c>B | {d}c2B>A G2z2 |\
ccc2 AAA2 | ddd2 B/d/HG gf |\
(fe)dc A2BB | ccz2 z2 |]


